images/ib-ico-5.svg

<?xml version="1.0" encoding="UTF-8" standalone="no"?>
<svg width="86px" height="86px" viewBox="0 0 86 86" version="1.1" xmlns="http://www.w3.org/2000/svg" xmlns:xlink="http://www.w3.org/1999/xlink" xmlns:sketch="http://www.bohemiancoding.com/sketch/ns">
    <!-- Generator: Sketch 3.3.3 (12081) - http://www.bohemiancoding.com/sketch -->
    <title>ib-ico-5</title>
    <desc>Created with Sketch.</desc>
    <defs>
        <linearGradient x1="50.5241646%" y1="60.1298406%" x2="50%" y2="60.6504246%" id="linearGradient-1">
            <stop stop-color="#E74C3C" offset="0%"></stop>
            <stop stop-color="#A82A1D" offset="100%"></stop>
        </linearGradient>
    </defs>
    <g id="Page-1" stroke="none" stroke-width="1" fill="none" fill-rule="evenodd" sketch:type="MSPage">
        <g id="ib-ico-5" sketch:type="MSArtboardGroup">
            <g id="kli23" sketch:type="MSLayerGroup" transform="translate(0.000000, 11.000000)">
                <path d="M42.7607542,50.9577286 L38.1607271,46.3607149 L38.1607271,46.3607149 C37.9915935,46.2426756 37.8419906,46.0946424 37.7207214,45.9209974 L33.2196299,41.4228545 C32.9962083,41.2833005 32.8029636,41.0939031 32.6599777,40.863569 L32.6599777,40.863569 L10.0704944,18.2888835 C9.21563589,19.097703 8.4606675,19.8118886 7.86958333,20.3715263 L51.1947917,62.7366842 L80.569375,62.7366842 L80.569375,59.5700526 C80.569375,59.5511091 80.5693033,59.5321818 80.5691601,59.513271 L80.5691601,59.513271 L51.3152083,59.5065789 L43.1272788,51.3240132 C42.9893953,51.2217947 42.8654343,51.0989377 42.7607542,50.9577286 Z M58.2822593,43.0341142 C57.9305871,42.1068193 57.5798548,41.1992275 57.2328596,40.3154144 L57.2328596,40.3154144 L42.4290575,45.6283799 L44.6487766,47.8464704 L57.2333333,43.0986316 C57.5809791,42.9666408 57.9451579,42.9514223 58.2822593,43.0341142 Z M59.3030373,45.7770718 C59.9174478,47.4609293 60.526442,49.1931123 61.115,50.9517368 C61.3664583,51.6675789 62.0429167,52.1577368 62.804375,52.1577368 L73.1247917,52.1577368 C75.9293287,52.1577368 78.371395,53.7063243 79.6407635,55.9867141 L79.6407635,55.9867141 L52.7885417,55.9802632 L47.3911399,50.5868215 L58.490625,46.3992632 C58.829388,46.2711435 59.1063282,46.0504492 59.3030373,45.7770718 Z M55.9196142,37.0346897 C55.5206198,36.056338 55.1321656,35.1197003 54.7590734,34.2318019 L54.7590734,34.2318019 L37.41412,40.617122 L39.6620267,42.8633793 L55.9196142,37.0346897 L55.9196142,37.0346897 Z M53.3674575,30.9738401 C52.7084588,29.4553309 52.1395184,28.1771505 51.70125,27.1984737 C46.5339583,26.9622105 38.8308333,23.9542632 34.27625,19.0597368 C31.6554167,16.2281053 30.3804167,13.0896842 30.6247917,9.95478947 C30.7629167,8.15284211 30.249375,6.44257895 29.2364583,5.36 C28.7760417,4.85926316 27.9827083,4.26331579 26.8139583,4.26331579 C25.415,4.26331579 23.8389583,5.092 22.2664583,6.66826316 C21.0286428,7.90308363 16.515797,12.1868725 12.6378263,15.859007 L34.6629857,37.8680062 L53.3674575,30.9738401 L53.3674575,30.9738401 Z M57.2027672,30.8942902 C56.0039204,28.1008882 55.0292636,25.9471094 54.4708333,24.7124211 C54.1733333,24.0459474 53.5039583,23.7144737 52.7779167,23.6721579 L52.3635417,23.6827368 C48.0604167,23.6827368 40.9310417,20.9956842 36.8829167,16.6618421 C34.9102083,14.5531053 33.9964583,12.3773684 34.1629167,10.2263158 C34.3754167,7.41936842 33.5325,4.77463158 31.843125,2.96210526 C30.5079167,1.53042105 28.7229167,0.737 26.8210417,0.737 C25.1741667,0.737 22.6241667,1.33294737 19.7695833,4.17515789 C17.5666667,6.36852632 4.22875,18.9468947 4.09770833,19.0738421 C3.75416667,19.3947368 3.54875,19.8531579 3.54520833,20.3292105 C3.54166667,20.8052632 3.73291667,21.2707368 4.069375,21.6022105 L49.225625,65.7516842 C49.5620833,66.0761053 50.0083333,66.263 50.4722917,66.263 L82.3402083,66.263 C83.3141667,66.263 84.1110417,65.4695789 84.1252083,64.4927895 L84.1252083,59.563 C84.1252083,53.5294737 79.1916667,48.6243684 73.131875,48.6243684 L64.0829167,48.6243684 C61.8859324,42.2025762 59.4685776,36.2135534 57.5468464,31.6992719 C57.5289933,31.5821122 57.4991063,31.4648362 57.4564583,31.3489474 C57.3927639,31.1819889 57.3066461,31.0296374 57.2027672,30.8942902 Z" id="Shape" fill="url(#linearGradient-1)" sketch:type="MSShapeGroup"></path>
                <path d="M9.73604167,41.5787895 L2.65270833,41.5787895 C1.67875,41.5787895 0.881875,40.7853684 0.881875,39.8156316 C0.881875,38.8458947 1.67875,38.0524737 2.65270833,38.0524737 L9.73604167,38.0524737 C10.71,38.0524737 11.506875,38.8458947 11.506875,39.8156316 C11.506875,40.7853684 10.71,41.5787895 9.73604167,41.5787895 Z M16.819375,48.6314211 L2.65270833,48.6314211 C1.67875,48.6314211 0.881875,47.838 0.881875,46.8682632 C0.881875,45.8985263 1.67875,45.1051053 2.65270833,45.1051053 L16.819375,45.1051053 C17.7933333,45.1051053 18.5902083,45.8985263 18.5902083,46.8682632 C18.5902083,47.838 17.7933333,48.6314211 16.819375,48.6314211 Z M23.9027083,55.6840526 L2.65270833,55.6840526 C1.67875,55.6840526 0.881875,54.8906316 0.881875,53.9208947 C0.881875,52.9511579 1.67875,52.1577368 2.65270833,52.1577368 L23.9027083,52.1577368 C24.8766667,52.1577368 25.6735417,52.9511579 25.6735417,53.9208947 C25.6735417,54.8906316 24.8766667,55.6840526 23.9027083,55.6840526 Z" id="Shape" fill="#CD2122" sketch:type="MSShapeGroup"></path>
            </g>
        </g>
    </g>
</svg>

<svg width="86" height="86" xmlns="http://www.w3.org/2000/svg"><defs><linearGradient x1="50.524%" y1="60.13%" x2="50%" y2="60.65%" id="linearGradient-1"><stop stop-color="#E74C3C" offset="0%"/><stop stop-color="#A82A1D" offset="100%"/></linearGradient></defs><g id="Page-1" stroke="none" stroke-width="1" fill="none" fill-rule="evenodd"><g id="ib-ico-5"><g id="kli23" transform="translate(0 11)"><path d="M42.76 50.958l-4.6-4.597a1.777 1.777 0 01-.44-.44l-4.5-4.498a1.746 1.746 0 01-.56-.56L10.07 18.29c-.854.809-1.61 1.523-2.2 2.083l43.325 42.365h29.374v-3.225l-29.254-.006-8.188-8.183a1.763 1.763 0 01-.366-.366zm15.522-7.924c-.351-.927-.702-1.835-1.05-2.719L42.43 45.628l2.22 2.218L57.233 43.1a1.763 1.763 0 011.05-.065zm1.021 2.743a204.032 204.032 0 011.812 5.175 1.799 1.799 0 001.69 1.206h10.32a7.452 7.452 0 016.516 3.829l-26.852-.007-5.398-5.393 11.1-4.188c.338-.128.615-.349.812-.622zm-3.383-8.742c-.4-.979-.788-1.915-1.16-2.803l-17.346 6.385 2.248 2.246 16.258-5.828zm-2.553-6.061a350.232 350.232 0 00-1.666-3.776c-5.167-.236-12.87-3.244-17.425-8.138-2.62-2.832-3.896-5.97-3.651-9.105.138-1.802-.376-3.512-1.389-4.595-.46-.5-1.253-1.097-2.422-1.097-1.399 0-2.975.829-4.548 2.405-1.237 1.235-5.75 5.519-9.628 9.191l22.025 22.009 18.704-6.894zm3.836-.08c-1.2-2.793-2.174-4.947-2.732-6.182-.298-.666-.967-.998-1.693-1.04l-.414.01c-4.304 0-11.433-2.686-15.481-7.02-1.973-2.109-2.887-4.285-2.72-6.436.212-2.807-.63-5.451-2.32-7.264C30.508 1.53 28.723.737 26.821.737c-1.647 0-4.197.596-7.051 3.438C17.567 6.37 4.229 18.947 4.098 19.074c-.344.32-.55.78-.553 1.255a1.78 1.78 0 00.524 1.273l45.157 44.15a1.8 1.8 0 001.246.511H82.34c.974 0 1.771-.793 1.785-1.77v-4.93c0-6.034-4.933-10.939-10.993-10.939h-9.05c-2.196-6.421-4.613-12.41-6.535-16.925a1.798 1.798 0 00-.09-.35 1.799 1.799 0 00-.254-.455z" id="Shape" fill="url(#linearGradient-1)"/><path d="M9.736 41.579H2.653a1.773 1.773 0 01-1.771-1.763c0-.97.797-1.764 1.77-1.764h7.084c.974 0 1.77.794 1.77 1.764s-.796 1.763-1.77 1.763zm7.083 7.052H2.653a1.772 1.772 0 01-1.771-1.763c0-.97.797-1.763 1.77-1.763H16.82c.974 0 1.771.794 1.771 1.763 0 .97-.797 1.763-1.77 1.763zm7.084 7.053H2.653a1.772 1.772 0 01-1.771-1.763c0-.97.797-1.763 1.77-1.763h21.25c.975 0 1.772.793 1.772 1.763 0 .97-.797 1.763-1.771 1.763z" id="Shape" fill="#CD2122"/></g></g></g></svg>
